svg/material-icons/savings/materialiconsround/20px.svg

<svg xmlns="http://www.w3.org/2000/svg" width="20" height="20" viewBox="0 0 20 20"><path d="m16.5 6.5-2-2c0-.36.5-.98.5-1.5 0-.55-.45-1-1-1-2.17 0-3.35 1.5-3.35 1.5H6.5C4.05 3.5 2 5.47 2 8c0 1.74 1.12 5.92 1.68 7.91.19.64.78 1.09 1.45 1.09H7c.83 0 1.5-.67 1.5-1.5H10c0 .83.67 1.5 1.5 1.5h1.86c.67 0 1.26-.45 1.45-1.1l.94-3.4 1.47-.33c.46-.1.78-.51.78-.98V7.5c0-.55-.45-1-1-1h-.5zm-6.25 1h-2.5c-.41 0-.75-.34-.75-.75S7.34 6 7.75 6h2.5c.41 0 .75.34.75.75s-.34.75-.75.75zm3 1.5c-.41 0-.75-.34-.75-.75s.34-.75.75-.75.75.34.75.75-.34.75-.75.75z"/></svg>

<svg xmlns="http://www.w3.org/2000/svg" enable-background="new 0 0 20 20" height="20" viewBox="0 0 20 20" width="20"><rect fill="none" height="20" width="20"/><path d="M16.5,6.5l-2-2C14.5,4.14,15,3.52,15,3c0-0.55-0.45-1-1-1c-2.17,0-3.35,1.5-3.35,1.5H6.5C4.05,3.5,2,5.47,2,8 c0,1.74,1.12,5.92,1.68,7.91C3.87,16.55,4.46,17,5.13,17H7c0.83,0,1.5-0.67,1.5-1.5v0H10v0c0,0.83,0.67,1.5,1.5,1.5h1.86 c0.67,0,1.26-0.45,1.45-1.1l0.94-3.4l1.47-0.33c0.46-0.1,0.78-0.51,0.78-0.98V7.5c0-0.55-0.45-1-1-1H16.5z M10.25,7.5h-2.5 C7.34,7.5,7,7.16,7,6.75v0C7,6.34,7.34,6,7.75,6h2.5C10.66,6,11,6.34,11,6.75v0C11,7.16,10.66,7.5,10.25,7.5z M13.25,9 c-0.41,0-0.75-0.34-0.75-0.75c0-0.41,0.34-0.75,0.75-0.75S14,7.84,14,8.25C14,8.66,13.66,9,13.25,9z"/></svg>
